lib/brands/icons/recaptcha.svg

<svg xmlns="http://www.w3.org/2000/svg" fill="none" aria-hidden="true" viewBox="0 0 48 48"><g id="recaptcha-Icon"><g id="Group"><path id="Vector" fill="#1C3AA9" d="M42.0001 23.9747C41.9993 23.7165 41.9933 23.4598 41.9817 23.2043V8.63663L37.9544 12.664C34.6582 8.62934 29.6439 6.05237 24.0275 6.05237C18.1826 6.05237 12.99 8.84226 9.70752 13.1628L16.3088 19.8336C16.9558 18.6371 17.8748 17.6095 18.9829 16.8334C20.1354 15.934 21.7684 15.1987 24.0272 15.1987C24.3001 15.1987 24.5108 15.2305 24.6655 15.2906C27.4643 15.5115 29.8903 17.0561 31.3187 19.2979L26.646 23.9707C32.5646 23.9474 39.2507 23.9338 41.9996 23.9737"/><path id="Vector_2" fill="#4285F4" d="M23.9223 6.05383C23.6642 6.05469 23.4074 6.06065 23.1519 6.07222H8.58426L12.6116 10.0996C8.57697 13.3957 6 18.41 6 24.0265C6 29.8714 8.78993 35.064 13.1105 38.3464L19.7812 31.7451C18.5848 31.0982 17.5571 30.1792 16.781 29.071C15.8817 27.9186 15.1463 26.2856 15.1463 24.0267C15.1463 23.7538 15.1782 23.5432 15.2382 23.3884C15.4591 20.5897 17.0037 18.1637 19.2455 16.7353L23.9183 21.408C23.8951 15.4894 23.8814 8.80322 23.9213 6.05435"/><path id="Vector_3" fill="#ABABAB" d="M6.00049 24.0253C6.00135 24.2834 6.0073 24.5402 6.01887 24.7957V39.3633L10.0462 35.336C13.3424 39.3706 18.3567 41.9476 23.9732 41.9476C29.8181 41.9476 35.0107 39.1577 38.2931 34.8371L31.6918 28.1664C31.0448 29.3628 30.1258 30.3904 29.0177 31.1666C27.8652 32.066 26.2323 32.8013 23.9734 32.8013C23.7005 32.8013 23.4899 32.7694 23.3351 32.7093C20.5363 32.4884 18.1104 30.9439 16.6819 28.702L21.3547 24.0293C15.4361 24.0525 8.74988 24.0662 6.001 24.0263"/></g></g></svg>

<svg xmlns="http://www.w3.org/2000/svg" fill="none" aria-hidden="true" viewBox="0 0 48 48"><path fill="#1C3AA9" d="M42 23.975c0-.259-.007-.515-.018-.77V8.636l-4.028 4.027c-3.296-4.035-8.31-6.612-13.927-6.612-5.844 0-11.037 2.79-14.32 7.11l6.602 6.672a8.746 8.746 0 0 1 2.674-3c1.152-.9 2.785-1.635 5.044-1.635.273 0 .484.031.639.092a8.703 8.703 0 0 1 6.653 4.007l-4.673 4.673c5.919-.024 12.605-.037 15.354.003"/><path fill="#4285F4" d="M23.922 6.054c-.258 0-.515.007-.77.018H8.584l4.028 4.028C8.577 13.396 6 18.41 6 24.026c0 5.845 2.79 11.038 7.11 14.32l6.671-6.6a8.745 8.745 0 0 1-3-2.675c-.9-1.152-1.635-2.785-1.635-5.044 0-.273.032-.484.092-.639a8.703 8.703 0 0 1 4.008-6.653l4.672 4.673c-.023-5.919-.037-12.605.003-15.354"/><path fill="#ABABAB" d="M6 24.025c.001.258.007.515.019.77v14.568l4.027-4.027c3.296 4.035 8.31 6.612 13.927 6.612 5.845 0 11.038-2.79 14.32-7.11l-6.601-6.672a8.748 8.748 0 0 1-2.674 3c-1.153.9-2.786 1.635-5.045 1.635-.272 0-.483-.032-.638-.092a8.703 8.703 0 0 1-6.653-4.007l4.673-4.673c-5.919.023-12.605.037-15.354-.003"/></svg>
